!!!!SEGMENT: pl-wumfc--n68232--001-024_moniuszko-stanislaw--paria-wyciag-fortepianowy-akt-iii-scena-ii-modlitwa.krn
!!!cenid: 18xx:4154
!!!COM: Moniuszko, Stanisław
!!!COM-rismID: pe30008351
!!!CDT: 1819/05/05-1872/06/04
!!!CNT: Polish
!!!GTL: Paria – wyciąg fortepianowy
!!!OTL: Akt III. Scena II. Modlitwa
!!!OMV: 024
!!!PDT:
!!!AGN:
!!!YEC: Copyright 2022 Narodowy Instytut Fryderyka Chopina (https://polishscores.org)
!!!YEM: License CC-BY-4.0 (https://creativecommons.org/licenses/by/4.0)
!!!SMS-siglum: PL-Wumfc
!!!SMS-shelfmark: N68232
!!!SMS-variant:
!!!SMS-altvar:
!!!SMS-shelfwork: 001-024 G
!!!NIFC-rismSourceID: 1001171381
!!!NIFC-rismChildID: 1001171381
!!!NIFC-islandoraID: pl-wumfc:7210
!!!URL-pdf-islandora: https://repozytorium.nifc.pl/islandora/object/pl-wumfc%3A7210/datastream/PDF/view
!!!URL-scan: https://polish.musicsources.pl/pl/lokalizacje/galeria/druki-muzyczne/12634/1 @EN{Scan on Polish Music Sources Website} @PL{Skany w portalu Dziedzictwo Muzyki Polskiej w otwartym dostępie}
!!!IIIF:
!!!ONB-nifc: UWAGA: str. 95-96. Uwaga: proszę w pliku umieszczać obsadę, która występuje tylko w danej części.
!!!AIN: 2 piano 1 vox
!!!key: A
**kern	**kern	**dynam	**kern	**text	**text	**dynam
*part3	*part2	*	*part1	*	*	*
*staff3	*staff2	*	*staff1	*	*	*
*I"[Piano]	*I"[Piano]	*	*I"Akebar. Akebar.	*	*	*
*I'[pf]	*I'[pf]	*	*I'A. A.	*	*	*
*ICklav	*ICklav	*	*ICvox	*	*	*
*Ipiano	*Ipiano	*	*Ivox	*	*	*
*clefF4	*clefG2	*	*clefF4	*	*	*
*k[f#c#g#]	*k[f#c#g#]	*	*k[f#c#g#]	*	*	*
*A:	*A:	*	*A:	*	*	*
*M4/4	*M4/4	*	*M4/4	*	*	*
*met(c)	*met(c)	*	*met(c)	*	*	*
=1	=1	=1	=1	=1	=1	=1
*	*^	*	*	*	*	*
!	!LO:TX:a:t=Ottoni	!	!	!	!	!	!
!	!LO:TX:a:B:t=Moderato.	!	!	!LO:TX:a:B:t=Moderato.	!	!	!
2AA\ 2A	2c#/ 2e 2a	2ryy	p	1r	.	.	.
4D\	4..a/	2d\ 2fn	.	.	.	.	.
4GGn/ 4Gn	.	.	.	.	.	.	.
.	16b/	.	.	.	.	.	.
*	*v	*v	*	*	*	*	*
=2	=2	=2	=2	=2	=2	=2
2Cn\ 2Gn	2cn/ 2e 2ccn	.	1r	.	.	.
2GGn/ 2G	2B/ 2d 2gn	.	.	.	.	.
=3	=3	=3	=3	=3	=3	=3
2CCn/ 2Cn	2cn/ 2e 2gn	.	1r	.	.	.
4..DD/ 4..D	4..A/ 4..d 4..fn	.	.	.	.	.
16EE/ 16E	16G#X/ 16B 16e	.	.	.	.	.
=4	=4	=4	=4	=4	=4	=4
1EE 1E	1G# 1B 1e	.	2r	.	.	.
.	.	.	4r	.	.	.
!	!	!	!	!	!	!LO:DY:a
.	.	.	4E\	Bo-	O	p
!!LO:LB:g=original	!	!	!	!	!	!
=5||	=5||	=5||	=5||	=5||	=5||	=5||
*M12/8	*M12/8	*	*M12/8	*	*	*
!	!LO:TX:a:t=Viole	!	!	!	!	!
!	!LO:TX:a:B:t=Andante, ma non troppo lento.	!	!LO:TX:a:B:t=Andante, ma non troppo lento.	!	!	!
4AA/ 4C# 4E	8r	p	4.A\	-go-	Dei,	.
.	(<8c#/L	.	.	.	.	.
8r	8e/J	.	.	.	.	.
4E\ 4A	8c#/L 8a	.	4A\	-wie	d’a-	.
.	8e/	.	.	.	.	.
8r	8c#/J)	.	8A\	mi-	-mo-	.
4EE/	8r	.	4.A\	-ło-	-ro-	.
.	(8B/L	.	.	.	.	.
8r	8e/J	.	.	.	.	.
4E\ 4G#	8B/L 8g#	.	8G#\	-ści	-se	.
.	8e/	.	8r	.	.	.
8r	8B/J)	.	8G#\	Bo-	dol-	.
=6	=6	=6	=6	=6	=6	=6
4FF#/	8r	.	4.G#\	-go-	-cez-	.
.	(8A/L	.	.	.	.	.
8r	8c#/J	.	.	.	.	.
4C#\ 4F#	8A/L 8f#	.	4F#\	-wie	-ze ed	.
.	8c#/	.	.	.	.	.
8r	8A/J)	.	8F#\	ros-	af-	.
4CC#\ 4C#	8r	.	4.F#\	-ko-	-fet-	.
.	(8A</L	.	.	.	.	.
8rFF	8E</J	.	.	.	.	.
4C#\ 4E	8e/L	.	8E\	-szy,	-ti,	.
.	8A/	.	8r	.	.	.
8r	8e/J)	.	8C#/	U-	vo-	.
=7	=7	=7	=7	=7	=7	=7
4BBB\ 4BB	8e<^/L	.	4.E\	-słysz-	-glia-	.
.	(8F#</	.	.	.	.	.
8r	8B</J	.	.	.	.	.
4BB\ 4D 4F#	8d</L	.	8D\	-cie	-te	.
.	8B</	.	8r	.	.	.
8rAA	8F#</J)	.	8D\	bła-	le	.
4EE\	8d<^/L	.	4.D\	-gal-	pre-	.
.	8E</	.	.	.	.	.
8rFF	8A</J	.	.	.	.	.
4AA\ 4C# 4E	8c#</L	.	4C#/	-ny,	-ci	.
.	8A</	.	.	.	.	.
.	.	.	(8qE/	.	.	.
8rFF	8E</J	.	8D\)	po-	fer-	.
!!LO:LB:g=original	!	!	!	!	!	!
=8	=8	=8	=8	=8	=8	=8
*^	*	*	*	*	*	*
2.EE/ 2.D	(4.AA\	8r	.	[>4.C#/	-kor-	-ven-	.
.	.	(8E</L	.	.	.	.	.
.	.	8e/J	.	.	.	.	.
.	4.GG#\)	8B</L	.	4C#/]	.	-ti e	.
.	.	8E</	.	.	.	.	.
.	.	8B</J	.	8BB/	-ny	sau-	.
(8AA\L 8C#	4.ryy	4A</)	.	4AA/	głos	-dir.	.
8C#\	.	.	.	.	.	.	.
8E\J	.	8rG<	.	8r	.	.	.
8ryy	4.AA\)	8rG<	.	4.AA/	Niech	Del	.
4ryy	.	(8C#</L	.	.	.	.	.
.	.	8E</J)	.	.	.	.	.
*v	*v	*	*	*	*	*	*
=9	=9	=9	=9	=9	=9	=9
(4.AA-X\	8B-X</L	.	4.BB-X/	chmu-	vo-	.
.	8D</	.	.	.	.	.
.	8Fn</J	.	.	.	.	.
4.GGn\	8Bn</L	.	4BBn/	-ry	-stro	.
.	8D</	.	.	.	.	.
.	8F</J	.	8BB/	ich	fa-	.
4CCn\)	8cn</L	.	4.Cn/	ży-	-vo-	.
.	8Cn</	.	.	.	.	.
8r	8E</J	.	.	.	.	.
(4.Cn\	8c</L	.	8C/	-cia	-re	.
.	8E</	.	8r	.	.	.
.	8Gn</J	.	8C/	ta	su	.
=10	=10	=10	=10	=10	=10	=10
4.C-X\	8d-X</L	.	4.D-X\	chwi-	que-	.
.	8Fn</	.	.	.	.	.
.	8A-X</J	.	.	.	.	.
4.BB-X\	8dn</L	.	4Dn\	-la	-sti	.
.	8F</	.	.	.	.	.
.	8A-</J	.	8D\	roz-	di-	.
4EE-X\)	8e-X/L	.	4.E-X\	-pro-	-let-	.
.	8E-X</	.	.	.	.	.
8r	8Gn</J	.	.	.	.	.
4.E-y\	8e-\L	.	8E-\	-szy.	-ti	.
.	8G</	.	8r	.	.	.
.	8B-X</J	.	8E-\	Ze-	ser-	.
!!LO:LB:g=original	!	!	!	!	!	!
=11	=11	=11	=11	=11	=11	=11
*	*^	*	*	*	*	*
!	!	!LO:N:vis=4.	!	!	!	!	!
2.DD-X\ 2.D-X	[4.fn^/	8f\L	<	4.Fn\	-szlij-	-ba-	.
.	.	8A-X</	.	.	.	.	.
.	.	8c-X</J	.	.	.	.	.
.	8f/L]	8d-X\L	.	4E-X\	-cie	-te	.
.	8e-X/	8c-y</	.	.	.	.	.
.	8d-X/J	8A-y</J	[	8D-X\	przy-	la	.
2.GG-X/ 2.D-	[4.b-X^/	8B-X\L	sf >	[4.B-X\	-ja-	gra-	.
.	.	8d-\	.	.	.	.	.
.	.	8B-\J	.	.	.	.	.
.	4b-/]	8d-\L	.	4B-\]	.	.	.
.	.	8B-\	.	.	.	.	.
.	8a-X/	8d-\J	]]	8A-X\	-zny	-zia	.
=12	=12	=12	=12	=12	=12	=12	=12
*^	*	*	*	*	*	*	*
2.FFn/ 2.D-X	2.ryy	4.a-X/	8A-X\L	.	4.A-X\	bło-	nel-	.
.	.	.	8d-X\	.	.	.	.	.
.	.	.	8A-\J	.	.	.	.	.
.	.	4gn/	8d-\L	.	4Gn\	-gi	-l’a-	.
.	.	.	8B-X\	.	.	.	.	.
.	.	8a-/	8d-\J	.	8G#X\	im	-ve-	.
4.BBn/	2.EEn\	[4.g#X/	8dn\L	.	[4.G#\	los!	-nir!	.
.	.	.	8Bn\	.	.	.	.	.
.	.	.	8en\J	.	.	.	.	.
4.En/	.	(8g#/L]	8e\L	.	8G#\]	.	.	.
.	.	8f#X/	(<16d\L	.	8r	.	.	.
.	.	.	16B#y\	.	.	.	.	.
.	.	8e/J)	16G#</	.	8E\	Bo-	O	.
.	.	.	16E</JJ)	.	.	.	.	.
*v	*v	*	*	*	*	*	*	*
=13	=13	=13	=13	=13	=13	=13	=13
!LO:TX:b:t=(pizz.)	!	!	!	!	!	!	!
8AAA'/L 8AA	4.e/ 4.a 4.cc#	2.ryy	.	4.A\	-go-	Dei,	.
8AA'/	.	.	.	.	.	.	.
8C#'/J	.	.	.	.	.	.	.
8E'\L	4a\ 4cc#	.	.	[4C#/	-wie	d’a-	.
8AA'\	.	.	.	.	.	.	.
8A'\J	8a\ 8b 8dd	.	.	16C#/]	.	.	.
.	.	.	.	16D\	mi-	-mo-	.
8EE'/L	2.b/ 2.ee	(4.a\	.	4.E\	-ło-	-ro-	.
8BB'/	.	.	.	.	.	.	.
8E'/J	.	.	.	.	.	.	.
8G#'\L	.	4.g#\)	.	8E\	-ści,	-se	.
8B'\	.	.	.	8r	.	.	.
8E'\J	.	.	.	8E\	Bo-	dol-	.
!!LO:PB:g=original	!	!	!	!	!	!	!
=14	=14	=14	=14	=14	=14	=14	=14
8FF#'/L	4.c#/ 4.g# 4.a	2.ryy	.	4.F#\	-go-	-cez-	.
8AA'/	.	.	.	.	.	.	.
8C#'/J	.	.	.	.	.	.	.
8F#'\L	4f#/ 4a	.	.	4AA/	-wie	-ze ed	.
8A'\	.	.	.	.	.	.	.
8C#'\J	8f#/ 8g# 8b	.	.	8BB/	ros-	af-	.
8CC#'/L	2.g#/ 2.cc#	(4.f#\	.	4.C#/	-ko-	-fet-	.
8GG#'/	.	.	.	.	.	.	.
8C#'/J	.	.	.	.	.	.	.
8E'\L	.	4.e\)	.	8E\	-szy,	-ti,	.
8G#'\	.	.	.	8r	.	.	.
8C#'\J	.	.	.	8E\	U-	vo-	.
*	*v	*v	*	*	*	*	*
=15	=15	=15	=15	=15	=15	=15
8DD'/L	(>4.e/ 4.f# 4.cc#	.	[4.F#\	-słysz-	-glia-	.
8FF#'/	.	.	.	.	.	.
8BB'/J	.	.	.	.	.	.
8D'\L	4d/) 4f# 4b	.	8F#\]	.	.	.
8F#'\	.	.	8G#\	-cie	-te	.
8B'\J	8d/	.	8A\	bła-	le	.
8EE'/L	(4.B/ 4.d	.	4.A\	-gal-	pre-	.
8AA'/	.	.	.	.	.	.
8E'/J	.	.	.	.	.	.
8A'\L	4c#/)	.	8C#/	-ny,	-ci	.
8F#'\	.	.	8r	.	.	.
8E'\J	8e/	.	8C#/	po-	fer-	.
=16	=16	=16	=16	=16	=16	=16
*	*^	*	*	*	*	*
!	!	!LO:N:vis=4.	!	!	!	!	!
4.EE\	4.c#/	8c#'\L	.	[4.E\	-kor-	-ven-	.
.	.	8A<'/	.	.	.	.	.
.	.	8E<'/J	.	.	.	.	.
4.EE\	4c#/	(8c#'\L	.	8E\]	.	.	.
.	.	8G#<'/	.	8D\	-ny	-ti e	.
.	8B/)	8E<'/J	.	8BB/	mój	sau-	.
!	!LO:TX:b:t=V-le	!	!	!	!	!	!
8AAA\L 8AA	(16A/LL	2.ryy	.	4AA/	głos.	-dir.	.
.	16E</	.	.	.	.	.	.
8AA\J 8C#	16A/	.	.	.	.	.	.
.	16e/	.	.	.	.	.	.
8r	16c#/	.	.	8r	.	.	.
.	16A/JJ)	.	.	.	.	.	.
8AA\L 8C# 8E	16ra	.	.	4.A\	Ne-	Ne-	.
.	(16A/LL	.	.	.	.	.	.
8AA\J 8C# 8E	16e/	.	.	.	.	.	.
.	16a/	.	.	.	.	.	.
8r	16e/	.	.	.	.	.	.
.	16A/JJ)	.	.	.	.	.	.
*	*v	*v	*	*	*	*	*
!!LO:LB:g=original	!	!	!	!	!	!
=17	=17	=17	=17	=17	=17	=17
*tremolo	*	*	*	*	*	*
8D\L 8Fn 8B-X	16r	>	4.B-X\	-a-	-a-	.
.	(16d/LL	.	.	.	.	.
8D\J 8F 8B-	16fn/	.	.	.	.	.
.	16b-X/	.	.	.	.	.
8r	16f/	]	.	.	.	.
.	16d/JJ)	.	.	.	.	.
8EE/L 8C# 8E	(16A/LL	.	4A\	-la	-la ab-	.
.	16c#/	.	.	.	.	.
8EE/J 8E	16e/	.	.	.	.	.
.	16a/	.	.	.	.	.
8r	16d/	.	8G#\	o-	-ban-	.
.	16e/JJ)	.	.	.	.	.
8AAA/L 8AA	(16c#/LL	.	4.A\	-pu-	-do-	.
.	16e/	.	.	.	.	.
8AA/J 8C# 8E	16cc#/	.	.	.	.	.
.	16bn/	.	.	.	.	.
8r	16a/	.	.	.	.	.
.	16g#/JJ)	.	.	.	.	.
*Xtremolo	*	*	*	*	*	*
8C#\L 8E 8A	(16a/LL	.	8E\	-szcza	-na	.
.	16g#/	.	.	.	.	.
8C#\J 8E 8A	16f#X/	.	8r	.	.	.
.	16e/	.	.	.	.	.
8r	16d#X/	.	8E\	świą-	del	.
.	16e/JJ)	.	.	.	.	.
=18	=18	=18	=18	=18	=18	=18
*	*^	*	*	*	*	*
!	!LO:N:vis=4.	!	!	!	!	!	!
8BB\L 8D 8A	16fn/LL	4.f\	>	4.Fn\	-ty-	tem-	.
.	16A/	.	.	.	.	.	.
8BB\J 8D 8A	16B/	.	]	.	.	.	.
.	16d/	.	.	.	.	.	.
8r	16B/	.	.	.	.	.	.
.	16A/JJ	.	.	.	.	.	.
8EE/L 8BB 8E	(16G#/LL 16e	4.ryy	.	4E\	-ni	-pio	.
.	16B/)	.	.	.	.	.	.
8EE/J 8BB 8E	16G#/ 16e	.	.	.	.	.	.
.	(16g#/	.	.	.	.	.	.
8r	16b/	.	.	8D\	schro-	le	.
.	16d/JJ)	.	.	.	.	.	.
8AA\L 8C# 8A	16c#/LL	2.ryy	.	4.C#/	-nie-	mu-	.
.	16e/	.	.	.	.	.	.
8AA\J 8C# 8A	16a/	.	.	.	.	.	.
.	16e/	.	.	.	.	.	.
8rC	16c#/	.	.	.	.	.	.
.	16A</JJ	.	.	.	.	.	.
8C#\L 8E	16ra	.	.	8E\	-nie.	-ra,	.
.	16A</LL	.	.	.	.	.	.
8C#\J 8E	16c#\	.	.	8r	.	.	.
.	16e\	.	.	.	.	.	.
8r	16A</	.	.	8A\	Wśród	fra-	.
.	16a\JJ	.	.	.	.	.	.
*	*v	*v	*	*	*	*	*
!!LO:LB:g=original	!	!	!	!	!	!
=19	=19	=19	=19	=19	=19	=19
8D\L 8Fn	16b-X/LL	.	4.B-X\	lu-	-gen-	.
.	16a/	.	.	.	.	.
8D\J 8F	16ccn/	.	.	.	.	.
.	16b-/	.	.	.	.	.
8r	16fn/	.	.	.	.	.
.	16d/JJ	.	.	.	.	.
8E\L 8A	16c#X/LL	.	4A\	-dzi	-ti	.
.	16a/	.	.	.	.	.
8E\ 8A	16e/	.	.	.	.	.
.	16c#/	.	.	.	.	.
8Bn\J	16d/	.	8G#\	jej	nel	.
.	16e/JJ	.	.	.	.	.
8AA\L 8E	16c#/LL	.	4.A\	ob-	mon-	.
.	16a/	.	.	.	.	.
8E\J 8c#	16ee/	.	.	.	.	.
.	16dd/	.	.	.	.	.
8r	16cc/	.	.	.	.	.
.	16bn/JJ	.	.	.	.	.
8AA\L 8C# 8A	16a/LL	.	4E\	-cych	-do a	.
.	16g#/	.	.	.	.	.
8AA\J 8C# 8A	16f#X/	.	.	.	.	.
.	16e/	.	.	.	.	.
8r	16d#X/	.	8E\	dlań	lei	.
.	16e/JJ	.	.	.	.	.
=20	=20	=20	=20	=20	=20	=20
*^	*	*	*	*	*	*
8BB/L 8D	2.ryy	16gn/LL	>	[4.G\	wspar-	stra-	.
.	.	16Gn/	.	.	.	.	.
8BB/J 8D	.	16B/	]	.	.	.	.
.	.	16d/	.	.	.	.	.
8rC	.	16g/	.	.	.	.	.
.	.	16b/JJ	.	.	.	.	.
8GGn/L 8D	.	16B/LL 16g	.	8G\]	.	.	.
.	.	16d/	.	.	.	.	.
8DD/ 8D	.	16A/ 16f#	.	8F#\	-ciem	-nie	.
.	.	16d/	.	.	.	.	.
8GG/J 8D	.	16B/ 16fn	.	8Fn\	ty	vi-	.
.	.	16d/JJ	.	.	.	.	.
4.E/	2.GG#X\	16e/LL	.	[4.E\	sam,	-vrà.	.
.	.	16G#X/	.	.	.	.	.
.	.	16B/	.	.	.	.	.
.	.	16e/	.	.	.	.	.
.	.	16g#X/	.	.	.	.	.
.	.	16a/JJ	.	.	.	.	.
4.E/	.	16b\LL	.	8E\]	.	.	.
.	.	16cc#\	.	.	.	.	.
.	.	16dd\	.	8r	.	.	.
.	.	16b\	.	.	.	.	.
.	.	16g#\	.	8E\	Niech	L’a-	.
.	.	16e\JJ	.	.	.	.	.
!!LO:LB:g=original	!	!	!	!	!	!	!
=21	=21	=21	=21	=21	=21	=21	=21
*	*	*^	*	*	*	*	*
N(16AA\LL	2.ryy	4.a\ 4.cc#	2.ryy	.	4.A\	mi-	-mor	.
16E\	.	.	.	.	.	.	.	.
16A\	.	.	.	.	.	.	.	.
16B\	.	.	.	.	.	.	.	.
16c#\	.	.	.	.	.	.	.	.
16d\JJ	.	.	.	.	.	.	.	.
4.E\ 4.c#	.	16e\LL	.	.	4A\	-łość	la	.
.	.	16f#\	.	.	.	.	.	.
.	.	16g#\	.	.	.	.	.	.
.	.	16a\	.	.	.	.	.	.
.	.	16b\	.	.	8A\	wza-	pre-	.
.	.	16a\JJN)	.	.	.	.	.	.
4EE/	16ryy	((>4.a/) 4.cc#	16rd	.	4.A\	-jem-	-ser-	.
.	16e>\LL	.	16ryy	.	.	.	.	.
.	16f#>\	.	16ryy	.	.	.	.	.
.	16e>\	.	16ryy	.	.	.	.	.
!LO:TX:b:i:t=m.s.	!	!	!	!	!	!	!	!
16ryy	16B/	.	8ryy	.	.	.	.	.
16ryy	16c#/JJ	.	.	.	.	.	.	.
16e/LL	16ryy	4g#/)) 4b	4.ryy	.	8G#\	-na,	-vi	.
16E/	16ryy	.	.	.	.	.	.	.
16F#/	16ryy	.	.	.	8r	.	.	.
16E/	16ryy	.	.	.	.	.	.	.
16G#/	8E\	8e/ 8g#	.	.	8G#\	niech	da af-	.
16B/JJ	.	.	.	.	.	.	.	.
=22	=22	=22	=22	=22	=22	=22	=22	=22
2.BB\	2.ryy	16d#X/LL 16f#	4.ryy	>	4.B\	szczęś-	-fan-	.
.	.	16F#</	.	]	.	.	.	.
.	.	16B</	.	.	.	.	.	.
.	.	16c#</	.	.	.	.	.	.
.	.	16d#/	.	.	.	.	.	.
.	.	16e/JJ	.	.	.	.	.	.
.	.	16f#/LL	4d#\	.	4F#\	-cia	-no e	.
.	.	16g#/	.	.	.	.	.	.
.	.	16b/	.	.	.	.	.	.
.	.	16a/	.	.	.	.	.	.
.	.	16f#/	8rG	.	8A\	pro-	sven-	.
.	.	16B/JJ	.	.	.	.	.	.
[>4.E/	2.EE\	16dn/LL	4d\	.	[4.G#\	-mie-	-tu-	.
.	.	16e/	.	.	.	.	.	.
.	.	16g#/	.	.	.	.	.	.
.	.	16f#/	.	.	.	.	.	.
.	.	16e/	8ryy	.	.	.	.	.
.	.	16B/JJ	.	.	.	.	.	.
4E/]	.	16e\LL	4.ryy	.	8G#\]	.	.	.
.	.	16d\	.	.	.	.	.	.
.	.	16B</	.	.	8F#\	-nie	-ra.	.
.	.	16G#</	.	.	.	.	.	.
8rFF	.	16E</	.	.	8E\	Do	L’a-	.
.	.	16D</JJ	.	.	.	.	.	.
*	*	*v	*v	*	*	*	*	*
!!LO:PB:g=original	!	!	!	!	!	!	!
=23	=23	=23	=23	=23	=23	=23	=23
4.CC#\ 4.EE 4.AA	1.ryy	16C#</LL	.	4.A\	nie-	-mor	.
.	.	16E</	.	.	.	.	.
.	.	16A</	.	.	.	.	.
.	.	16c#</	.	.	.	.	.
.	.	16e\	.	.	.	.	.
.	.	16d\JJ	.	.	.	.	.
4.C#\ 4.E 4.A	.	16c#/LL	.	4E\	-ba	fra i	.
.	.	16d/	.	.	.	.	.
.	.	16e/	.	.	.	.	.
.	.	16f#/	.	.	.	.	.
.	.	16g#/	.	8E\	do	be-	.
.	.	16a/JJ	.	.	.	.	.
4.BB\ 4.D 4.A	.	16d\LL 16a	.	4.E\	nie-	-a-	.
.	.	16f#\	.	.	.	.	.
.	.	16d\	.	.	.	.	.
.	.	16B</	.	.	.	.	.
.	.	16F#</	.	.	.	.	.
.	.	16G#</JJ	.	.	.	.	.
4C#\ 4E	.	16A</LL	.	4C#/	-ba	-ti	.
.	.	16e\	.	.	.	.	.
.	.	16c#</	.	.	.	.	.
.	.	16A</	.	.	.	.	.
8rFF	.	16E</	.	8AA/	po-	gui-	.
.	.	16A</JJ	.	.	.	.	.
*v	*v	*	*	*	*	*	*
=24||	=24||	=24||	=24||	=24||	=24||	=24||
*M6/8	*M6/8	*	*M6/8	*	*	*
*^	*^	*	*	*	*	*
!	!LO:N:vis=4.	!	!LO:N:vis=4.	!	!	!	!	!
2.BB/	(4DD\	4.f#/	16f#^\LL	.	4.F#\	-wio-	-dar-	.
.	.	.	16G#</	.	.	.	.	.
.	.	.	16F#</	.	.	.	.	.
.	.	.	16G#</	.	.	.	.	.
!	!LO:N:vis=4	!	!	!	!	!	!	!
.	8DD\	.	16B</	.	.	.	.	.
.	.	.	16A</JJ	.	.	.	.	.
.	4.EE\)	16G#</LL 16e	8ryy	.	4E\	-dą	-vi	.
.	.	16d/	.	.	.	.	.	.
.	.	16B</	4ryy	.	.	.	.	.
.	.	16G#</	.	.	.	.	.	.
.	.	16E</	.	.	8E\	was	po-	.
.	.	16e/JJ	.	.	.	.	.	.
*v	*v	*	*	*	*	*	*	*
*	*v	*v	*	*	*	*	*
!!LO:LB:g=original	!	!	!	!	!	!
=25||	=25||	=25||	=25||	=25||	=25||	=25||
*M12/8	*M12/8	*	*M12/8	*	*	*
4AAA/ 4AA	16r	.	4AA/	bram!	-trà.	.
.	16A/LL	.	.	.	.	.
.	16c#/	.	.	.	.	.
.	16a/	.	.	.	.	.
8r	16c#/	.	8r	.	.	.
.	16A/JJ	.	.	.	.	.
([4Fn^\	16r	.	4.A\	Niech	L’a-	.
.	16A/LL	.	.	.	.	.
.	16d/	.	.	.	.	.
.	16a/	.	.	.	.	.
16F\LL]	16d/	.	.	.	.	.
32E\L	16A/JJ	.	.	.	.	.
32D\JJJ)	.	.	.	.	.	.
(<4.C#\ (>4.E	16r	.	4.E\	mi-	-mor	.
.	16A/LL	.	.	.	.	.
.	16e/	.	.	.	.	.
.	16a/	.	.	.	.	.
.	16e/	.	.	.	.	.
.	16A/JJ	.	.	.	.	.
4.D\) 4.F)	16r	.	4Gn\	-łość	la	.
.	16A/LL	.	.	.	.	.
.	16d/	.	.	.	.	.
.	16a/	.	.	.	.	.
.	16d/	.	8Fn\	wza-	pre-	.
.	16A/JJ	.	.	.	.	.
=26	=26	=26	=26	=26	=26	=26
[4AA/ [4C# [4E	16r	.	4E\	-jem-	-ser-	.
.	16A/LL	.	.	.	.	.
.	16e/	.	.	.	.	.
.	16a/	.	.	.	.	.
16AA/LL] 16C#] 16E]	16e/	.	8E\	-na,	-vi	.
32BB/L	16A/JJ	.	.	.	.	.
32AA/JJJ	.	.	.	.	.	.
([4Fn^\	16r	.	4.A^\	niech	da af-	.
.	16A/LL	.	.	.	.	.
.	16d/	.	.	.	.	.
.	16a/	.	.	.	.	.
16F\LL]	16d/	.	.	.	.	.
32E\L	16A/JJ	.	.	.	.	.
32D\JJJ)	.	.	.	.	.	.
((4.C#\ 4.E	16r	.	8E\	szczęś-	-fan-	.
.	16A/LL	.	.	.	.	.
.	16e/	.	8D#X\	-cia	-no e	.
.	16a/	.	.	.	.	.
.	16e/	.	8E\	pro-	sven-	.
.	16A/JJ	.	.	.	.	.
4.D\)) 4.F	16r	.	(4Gn\	-mie-	-tu-	.
.	16A/LL	.	.	.	.	.
.	16d/	.	.	.	.	.
.	16a/	.	.	.	.	.
.	16d/	.	8Fn\)	.	.	.
.	16A/JJ	.	.	.	.	.
!!LO:LB:g=original	!	!	!	!	!	!
=27	=27	=27	=27	=27	=27	=27
[4.AA\ [4.C#	16r	.	4E\	-nie	-ra,	.
.	N[<16E</LL	<	.	.	.	.
.	16A</	.	.	.	.	.
.	16c#</	.	.	.	.	.
.	16e\	.	8r	.	.	.
.	16a\JJ	[	.	.	.	.
4AA\]) 4C#] 4EN]	4cc#^\	.	4AA/	Was	fra i	.
8r	8r	.	8BB/	po-	be-	.
2.r	2.r	.	(4C#/	-wio-	-a-	.
.	.	.	8E\)	.	.	.
.	.	.	4A\	-dą	-ti	.
.	.	.	8G#\	do	gui-	.
=28	=28	=28	=28	=28	=28	=28
8r	8r	.	([2.B\	nie-	-dar-	.
!LO:N:vis=8..	!LO:N:vis=8..	!	!	!	!	!
8.r	8.r	.	.	.	.	.
16FF#/ 16F#	16B/ 16d#X 16a 16b	f	.	.	.	.
4FF#/ 4F#	4B/ 4d# 4a 4b	.	.	.	.	.
!LO:N:vis=16.	!LO:N:vis=16.	!	!	!	!	!
8.r	8.r	.	.	.	.	.
.	.	.	4B\]	.	.	.
16FF#/ 16F#	16B/ 16d# 16a 16b	.	.	.	.	.
4FF#/ 4F#	4B/ 4d# 4a 4b	.	.	.	.	.
.	.	.	8A\	.	.	.
8r	8r	.	8A\L	.	-vi	.
!LO:N:vis=4	!LO:N:vis=4	!	!	!	!	!
8r	8r	.	8G#\J)	.	.	.
8r	8r	.	8F#\	-ba	po-	.
!!LO:LB:g=original	!	!	!	!	!	!
=29	=29	=29	=29	=29	=29	=29
*^	*^	*	*	*	*	*
1.E	(4.GG#\	(>[<2.dn/	4.B</	p	4.E\	bram,	-trà,	.
.	4.FF#\	.	4.A</	.	4A\	was	fra i	.
.	.	.	.	.	8E\	po-	be-	.
.	4.GG#\	4.d/]	4.B</	.	[4.E\	-wio-	-a-	.
.	4.AA\	4.c#/	4.A</	.	8E\]	.	.	.
.	.	.	.	.	8D\	-dą	-ti	.
.	.	.	.	.	8C#/	do	gui-	.
*v	*v	*	*	*	*	*	*	*
=30	=30	=30	=30	=30	=30	=30	=30
*	*	*^	*	*	*	*	*
!	!	!	!LO:TX:t=P:problem: 4.E 2.A 2.c# bracketed notes	!	!	!	!	!
2.BBB\ 2.AA	[2.c#/	2.A</	4.E</	.	[2.C#/	nie-	-dar-	.
.	.	.	4.D#X</	.	.	.	.	.
2.EE\ 2.Dn	4.c#/_	2.G#<H/	4ryy	.	4.C#/_	.	-vi	.
.	.	.	2ryy	.	.	.	.	.
.	4c#/]	.	.	.	4C#/]	.	.	.
.	8B/	.	.	.	8BB/	-ba	po-	.
*	*v	*v	*v	*	*	*	*	*
=31	=31	=31	=31	=31	=31	=31
2.AAA\) 2.EE 2.AA	2.C#</) 2.Ah	.	[4.AA/	bram!	-trà.	.
.	.	.	4AA/]	.	.	.
.	.	.	8r	.	.	.
4.AAA\ 4.AA	4.C#</ 4.E< 4.A<	pp	2.r	.	.	.
4.AAA\ 4.AA	4.D</ 4.Fn< 4.A<	.	.	.	.	.
=32	=32	=32	=32	=32	=32	=32
1.AAA;< 1.AA	1.C#<; 1.E< 1.A<	.	1.r;	.	.	.
==	==	==	==	==	==	==
*-	*-	*-	*-	*-	*-	*-
!!!system-decoration: s1{(s2,s3)}
!!!RDF**kern: > = above
!!!RDF**kern: < = below
!!!RDF**kern: N = linked
!!!ENC: Arkadiusz Malec
!!!END: 7-09-2022
!!!ENC: Jan Barakat
!!!END: 2022-10-17
